Numix-Light-GalliumOS/22/panel/tomboy-panel.svg

<?xml version="1.0" encoding="UTF-8" standalone="no"?>
<svg
   xmlns:dc="http://purl.org/dc/elements/1.1/"
   xmlns:cc="http://creativecommons.org/ns#"
   xmlns:rdf="http://www.w3.org/1999/02/22-rdf-syntax-ns#"
   xmlns:svg="http://www.w3.org/2000/svg"
   xmlns="http://www.w3.org/2000/svg"
   xmlns:sodipodi="http://sodipodi.sourceforge.net/DTD/sodipodi-0.dtd"
   xmlns:inkscape="http://www.inkscape.org/namespaces/inkscape"
   width="22"
   viewBox="0 0 6.208889 6.208889"
   height="22"
   id="svg2"
   version="1.1"
   inkscape:version="0.91 r"
   sodipodi:docname="tomboy-panel.svg">
  <metadata
     id="metadata26">
    <rdf:RDF>
      <cc:Work
         rdf:about="">
        <dc:format>image/svg+xml</dc:format>
        <dc:type
           rdf:resource="http://purl.org/dc/dcmitype/StillImage" />
      </cc:Work>
    </rdf:RDF>
  </metadata>
  <sodipodi:namedview
     pagecolor="#ffffff"
     bordercolor="#666666"
     borderopacity="1"
     objecttolerance="10"
     gridtolerance="10"
     guidetolerance="10"
     inkscape:pageopacity="0"
     inkscape:pageshadow="2"
     inkscape:window-width="1366"
     inkscape:window-height="747"
     id="namedview24"
     showgrid="true"
     inkscape:zoom="11.313709"
     inkscape:cx="14.676609"
     inkscape:cy="10.620595"
     inkscape:window-x="0"
     inkscape:window-y="21"
     inkscape:window-maximized="1"
     inkscape:current-layer="svg2">
    <inkscape:grid
       type="xygrid"
       id="grid4200" />
  </sodipodi:namedview>
  <defs
     id="defs4" />
  <g
     id="g4210"
     style="fill:#353535;fill-opacity:1">
    <g
       transform="matrix(1.0001992,0,0,1,0.06982131,0.00110245)"
       id="g4196"
       style="fill:#353535;fill-opacity:1">
      <path
         style="color:#000000;font-style:normal;font-variant:normal;font-weight:normal;font-stretch:normal;font-size:medium;line-height:normal;font-family:sans-serif;text-indent:0;text-align:start;text-decoration:none;text-decoration-line:none;text-decoration-style:solid;text-decoration-color:#000000;letter-spacing:normal;word-spacing:normal;text-transform:none;direction:ltr;block-progression:tb;writing-mode:lr-tb;baseline-shift:baseline;text-anchor:start;white-space:normal;clip-rule:nonzero;display:inline;overflow:visible;visibility:visible;opacity:1;isolation:auto;mix-blend-mode:normal;color-interpolation:sRGB;color-interpolation-filters:linearRGB;solid-color:#000000;solid-opacity:1;fill:#353535;fill-opacity:1;fill-rule:nonzero;stroke:none;stroke-width:0.56444448;stroke-linecap:round;stroke-linejoin:round;stroke-miterlimit:4;stroke-dasharray:none;stroke-dashoffset:0;stroke-opacity:1;color-rendering:auto;image-rendering:auto;shape-rendering:auto;text-rendering:auto;enable-background:accumulate"
         d="M 4.4980469,3 C 3.9449872,3.0012411 3.4978938,3.4509593 3.5,4.0039062 L 3.5,15 c -0.00211,0.552947 0.4449873,1.002665 0.9980469,1.003906 l 13.5039061,0 C 18.554249,16.001589 19.000154,15.552187 18.998047,15 l 0,-9.4409999 L 13.369,11.292 9.4499999,12.55 10.307,9.03125 16.345,3 Z"
         transform="matrix(0.28216602,0,0,0.28222222,-0.0698074,-0.00110245)"
         id="rect4154"
         inkscape:connector-curvature="0"
         sodipodi:nodetypes="cccccccccccc" />
      <path
         style="color:#000000;font-style:normal;font-variant:normal;font-weight:normal;font-stretch:normal;font-size:medium;line-height:normal;font-family:sans-serif;text-indent:0;text-align:start;text-decoration:none;text-decoration-line:none;text-decoration-style:solid;text-decoration-color:#000000;letter-spacing:normal;word-spacing:normal;text-transform:none;direction:ltr;block-progression:tb;writing-mode:lr-tb;baseline-shift:baseline;text-anchor:start;white-space:normal;clip-rule:nonzero;display:inline;overflow:visible;visibility:visible;opacity:1;isolation:auto;mix-blend-mode:normal;color-interpolation:sRGB;color-interpolation-filters:linearRGB;solid-color:#000000;solid-opacity:1;fill:#353535;fill-opacity:1;fill-rule:nonzero;stroke:none;stroke-width:0.56444454;stroke-linecap:round;stroke-linejoin:round;stroke-miterlimit:4;stroke-dasharray:none;stroke-dashoffset:0;stroke-opacity:1;color-rendering:auto;image-rendering:auto;shape-rendering:auto;text-rendering:auto;enable-background:accumulate"
         d="m 0.91777365,4.5155555 0,0.5644445 c 6.209e-4,0.1552151 0.12645505,0.2808023 0.28167105,0.2811198 l 3.8105512,0 C 5.1649965,5.3605001 5.290496,5.2350006 5.2911157,5.08 l 0,-0.5644445 C 5.2904948,4.6705562 5.1649965,4.7960556 5.0099959,4.7966754 l -0.2833246,0 -3.2444532,0 -0.2827734,0 C 1.0442287,4.7963579 0.91839505,4.6707707 0.91777365,4.5155555 Z"
         id="rect4154-7"
         inkscape:connector-curvature="0"
         sodipodi:nodetypes="ccccccccccc" />
    </g>
  </g>
  <path
     style="color:#000000;font-style:normal;font-variant:normal;font-weight:normal;font-stretch:normal;font-size:medium;line-height:normal;font-family:sans-serif;text-indent:0;text-align:start;text-decoration:none;text-decoration-line:none;text-decoration-style:solid;text-decoration-color:#000000;letter-spacing:normal;word-spacing:normal;text-transform:none;direction:ltr;block-progression:tb;writing-mode:lr-tb;baseline-shift:baseline;text-anchor:start;white-space:normal;clip-rule:nonzero;display:inline;overflow:visible;visibility:visible;opacity:1;isolation:auto;mix-blend-mode:normal;color-interpolation:sRGB;color-interpolation-filters:linearRGB;solid-color:#000000;solid-opacity:1;fill:#353535;fill-opacity:1;fill-rule:evenodd;stroke:none;stroke-width:0.49388888;stroke-linecap:round;stroke-linejoin:miter;stroke-miterlimit:4;stroke-dasharray:none;stroke-dashoffset:0;stroke-opacity:1;color-rendering:auto;image-rendering:auto;shape-rendering:auto;text-rendering:auto;enable-background:accumulate"
     d="M 19.980469 1.1132812 C 19.75467 1.1230161 19.540857 1.2213181 19.384766 1.3847656 L 11.394531 9.3671875 L 10.599609 11.400391 L 12.632812 10.605469 L 20.617188 2.6152344 C 21.189098 2.0585313 20.778231 1.0892937 19.980469 1.1132812 z "
     transform="scale(0.28222222,0.28222222)"
     id="path4204" />
</svg>

<svg xmlns="http://www.w3.org/2000/svg" width="22" viewBox="0 0 6.208889 6.208889" height="22">
 <g style="fill:#353535;fill-opacity:1">
  <g transform="matrix(1.0001992,0,0,1,0.06982131,0.00110245)">
   <path d="m 4.498 3 c -0.553 0.001 -1 0.451 -0.998 1 l 0 10.996 c -0.002 0.553 0.445 1 0.998 1 l 13.504 0 c 0.552 -0.002 0.998 -0.452 0.996 -1 l 0 -9.441 l -5.629 5.733 -3.919 1.258 0.857 -3.519 6.04 -6.03" transform="matrix(0.28216602,0,0,0.28222222,-0.0698074,-0.00110245)" mix-blend-mode="normal" isolation="auto" white-space="normal" solid-opacity="1" solid-color="#000000" style="visibility:visible;shape-rendering:auto;color-interpolation-filters:linearRGB;opacity:1;image-rendering:auto;stroke:none;display:inline;color:#000;fill-rule:nonzero;color-rendering:auto;color-interpolation:sRGB"/>
   <path d="m 0.918 4.516 0 0.564 c 0.001 0.155 0.126 0.281 0.282 0.281 l 3.811 0 c 0.155 -0.001 0.281 -0.126 0.281 -0.281 l 0 -0.564 c -0.001 0.155 -0.126 0.281 -0.281 0.281 l -0.283 0 -3.244 0 -0.283 0 c -0.155 0 -0.281 -0.126 -0.282 -0.281" mix-blend-mode="normal" isolation="auto" white-space="normal" solid-opacity="1" solid-color="#000000" style="visibility:visible;shape-rendering:auto;color-interpolation-filters:linearRGB;opacity:1;image-rendering:auto;stroke:none;display:inline;color:#000;fill-rule:nonzero;color-rendering:auto;color-interpolation:sRGB"/>
  </g>
 </g>
 <path d="m 19.98 1.113 c -0.226 0.01 -0.44 0.108 -0.596 0.271 l -7.99 7.982 l -0.795 2.033 l 2.033 -0.795 l 7.984 -7.99 c 0.572 -0.557 0.161 -1.526 -0.637 -1.502 z" transform="scale(0.28222222,0.28222222)" mix-blend-mode="normal" isolation="auto" white-space="normal" solid-opacity="1" solid-color="#000000" style="visibility:visible;shape-rendering:auto;color-interpolation-filters:linearRGB;fill:#353535;opacity:1;image-rendering:auto;fill-opacity:1;stroke:none;display:inline;color:#000;fill-rule:evenodd;color-rendering:auto;color-interpolation:sRGB"/>
</svg>
